Sources/FrostedUI/Resources/Icons.xcassets/bulb24.imageset/bulb-24.svg

<svg width="24" height="24" viewBox="0 0 24 24" fill="none" xmlns="http://www.w3.org/2000/svg" data-fui-icon="true">
  <path
    d="M15.5996 22.0508C16.0138 22.0508 16.3496 22.3866 16.3496 22.8008C16.3492 23.2146 16.0136 23.5508 15.5996 23.5508H8.40039C7.98643 23.5508 7.6508 23.2146 7.65039 22.8008C7.65039 22.3866 7.98618 22.0508 8.40039 22.0508H15.5996ZM12 0.150391C14.8024 0.150396 17.1246 1.1149 18.748 2.73145C20.3688 4.34547 21.2499 6.56679 21.25 9C21.2498 12.1353 19.2967 14.3552 17.917 15.5371C17.2029 16.1489 16.75 16.9566 16.75 17.7656V18.25C16.7498 19.4925 15.7425 20.5 14.5 20.5H9.5C8.25748 20.5 7.2502 19.4925 7.25 18.25V17.7656C7.25 16.9566 6.79712 16.1489 6.08301 15.5371C4.70332 14.3552 2.75015 12.1353 2.75 9C2.75009 6.56678 3.63116 4.34547 5.25195 2.73145C6.87541 1.11489 9.19756 0.150391 12 0.150391ZM12 1.65039C9.5526 1.65039 7.62457 2.48565 6.31055 3.79395C4.99428 5.10471 4.25009 6.93373 4.25 9C4.25015 11.4821 5.80378 13.3228 7.05957 14.3984C8.00002 15.2042 8.75 16.3959 8.75 17.7656V18.25C8.7502 18.664 9.08591 19 9.5 19H14.5C14.9141 19 15.2498 18.664 15.25 18.25V17.7656C15.25 16.3959 16 15.2042 16.9404 14.3984C18.1962 13.3228 19.7498 11.4821 19.75 9C19.7499 6.93373 19.0057 5.10471 17.6895 3.79395C16.3754 2.48565 14.4474 1.6504 12 1.65039ZM14.25 10C14.6641 10 14.9998 10.336 15 10.75C14.9998 11.164 14.6641 11.5 14.25 11.5H12.75V15.25C12.7498 15.664 12.4141 16 12 16C11.5859 16 11.2502 15.664 11.25 15.25V11.5H9.75C9.33591 11.5 9.0002 11.164 9 10.75C9.0002 10.336 9.33591 10 9.75 10H14.25Z"
    fill="currentColor"
  />
</svg>

<svg xmlns="http://www.w3.org/2000/svg" width="24" height="24" fill="none" data-fui-icon="true" viewBox="0 0 24 24"><path fill="currentColor" d="M15.6 22.05a.75.75 0 0 1 0 1.5H8.4a.75.75 0 0 1 0-1.5zM12 .15c2.802 0 5.125.965 6.748 2.581C20.368 4.345 21.25 6.567 21.25 9c0 3.135-1.953 5.355-3.333 6.537-.714.612-1.167 1.42-1.167 2.229v.484a2.25 2.25 0 0 1-2.25 2.25h-5a2.25 2.25 0 0 1-2.25-2.25v-.484c0-.81-.453-1.617-1.167-2.229C4.703 14.355 2.75 12.135 2.75 9c0-2.433.881-4.655 2.502-6.269C6.875 1.115 9.198.151 12 .151m0 1.5c-2.447 0-4.375.836-5.69 2.144C4.995 5.104 4.25 6.934 4.25 9c0 2.482 1.554 4.323 2.81 5.398.94.806 1.69 1.998 1.69 3.368v.484c0 .414.336.75.75.75h5a.75.75 0 0 0 .75-.75v-.484c0-1.37.75-2.562 1.69-3.368 1.256-1.075 2.81-2.916 2.81-5.398 0-2.066-.744-3.895-2.06-5.206C16.374 2.486 14.446 1.65 12 1.65M14.25 10a.75.75 0 0 1 0 1.5h-1.5v3.75a.75.75 0 0 1-1.5 0V11.5h-1.5a.75.75 0 0 1 0-1.5z"/></svg>
